X: 365
T: Shang minxiao
L: 1/8
M: 2/4
K: G
G F E D [I:setbarnb 1]| 
d> e B d | 
g f e/ d/ B | 
d> BA2 | 
d A/ B< d e/ | 
g f e d | 
d A/ B/ A E | 
D4 | 
G D/ E/G2 | 
B A/ B/ d B | 
A F E D | 
E4 | 
d> d B d | 
g f e d | 
d G A E | 
d A/ B/ A E | 
D4 |]

@@@ Tune index: 9239
